X:22
T: Blowzabella
R:jig 32
M: 6/8
L:1/8
Q:1/4=140
R: jig
K:Gmaj
|:d2c BAG|c2A B2G|d2c BAG|A2D G3:|
|:g2d BGB|cAc BAG|g2d BGB|1ADF G3:|2ADF G2A||
|:BAB cBc|d3 d2c|BcB ABA|1 G3 G2A:|2G3 G3||
|:g2G g2G|ABA B2G|g2G g2G|1 ABA G3:|2ABA G2A||

